projects/oblique/icons/Bullhorn.svg

<?xml version="1.0" encoding="UTF-8"?><svg id="a" xmlns="http://www.w3.org/2000/svg" viewBox="0 0 24 24"><path d="M13.55664,4.8418H3.25049v9.67188h5.09131v8.23633h4.41553v-8.23633h.79932l7.19336,4.13818V.70362l-7.19336,4.13818ZM11.25732,21.25h-1.41553v-6.73584h1.41553v6.73584ZM19.25,16.05811l-5.29297-3.04443H4.75049v-6.67188h9.20654l5.29297-3.04443v12.76074Z"/></svg>

<svg xmlns="http://www.w3.org/2000/svg" viewBox="0 0 24 24"><title>Bullhorn</title><path d="M13.55664,4.8418H3.25049v9.67187H8.3418V22.75h4.41552V14.51367h.79932L20.75,18.65186V.70362ZM11.25732,21.25H9.8418V14.51416h1.41552ZM19.25,16.05811l-5.293-3.04444H4.75049V6.3418H13.957L19.25,3.29737Z" fill="#171717"/></svg>
